X:1
T:Standin In The Need of Prayer
T:The rocks and the mountains
T:Copyright 1881 by The Riverside Press
T:Rodeheaver's Plantation Melodies
T:Rodeheaver's Plantation Melodies
Z:Rodeheaver's Plantation Melodies
%%score [ 1 2 3 4 ]
L:1/8
Q:1/4=70
M:4/4
K:Ab
V:1 treble nm="Soprano" snm="S."
V:2 treble nm="Alto" snm="A."
V:3 bass nm="Tenor" snm="T."
V:4 bass nm="Bass" snm="B."
V:1
 c>B | B2 B>B B B2 B | B2 c>B A2 z E | AB c>c d c2 B | A2 B2 A4 || c e3 c e2 B | dd d>c B2 e2 | %7
 cc c>c d c2 B | A2 B2 A2!D.C.! |] %9
V:2
 E>D | D2 D>D D D2 D | D2 E>D C2 z C | CD E>E F E2 D | C2 D2 C4 || A c3 A c2 A | BB B>A G2 E2 | %7
w: Oh the|rocks and the moun- tains shall|all flee away- . And|you shall have a new hid- ing|place that day.|Seek- er, seek- er, give|up your heart to God. And|
 EE E>E F E2 D | C2 E2 C2 |] %9
w: you shall have a new hid- ing|place that day.|
V:3
 A,>G, | G,2 G,>G, G, G,2 G, | G,2 G,>G, A,2 z A, | A,A, A,>A, A, A,2 A, | A,2 G,2 A,4 || %5
 E E3 E E2 E | EE E>E E2 G,2 | A,A, A,>A, A, A,2 A, | A,2 G,2 A,2 |] %9
V:4
 A,,>E, | E,2 E,>E, E, E,2 E, | E,2 E,>E, A,,2 z A,, | A,,A,, A,,>A,, A,, A,,2 A,, | %4
 A,,2 E,2 A,,4 || A, A,3 A, A,2 A, | E,E, E,>E, E,2 E,2 | A,,A,, A,,>A,, A,, A,,2 A,, | %8
 A,,2 E,2 A,,2 |] %9

